X:1
T:A Glorious Church
T:Ralph Erskine Hudson, 1892
T:A Glorious Church
T:Public Domain
T:Public Domain
C:Ralph Erskine Hudson, 1892
Z:Public Domain
%%score 1 ( 2 3 )
L:1/8
M:4/4
K:C
V:1 treble 
V:2 bass 
V:3 bass 
V:1
 [EG]2 [EG]2 [FA][FB][Ec][Fd] | [Ec]4 [EG]4 | [FA][FB][Fc][Fd] [Fc]2 [FA]2 | [EG]6 z2 | %4
w: 1.~Do you hear them com- ing,|bro- ther,|Throng- ing up the steeps of|light,|
w: 2.~Do you hear the stir- ring|an- thems,|Fill- ing all the earth and|sky,|
w: 3.~Nev- er fear the clouds of|sor- row,|Nev- er fear the storms of|sin.|
w: 4.~Wave the ban- ner, shout His|prais- es,|For our vic- tor- y is|nigh!|
 [Ge]3 [Fd] [Ec][FB][Ec][EG] | [FB]2 [FA]4 z2 | [EG][EG][EG][EG] [DA]2 [FB]2 | [Ec]6 || %8
w: Clad in glor- ious shin- ing|gar- ments,|Blood washed, gar- ments pure and|white?|
w: ’Tis a grand, vic- tor- ious|ar- my,|Lift its ban- ner up on|high!|
w: We shall tri- umph on the|mor- row,|Ev- en now our joys be-|gin.|
w: We shall join our con- qu’ring|Sav- ior,|We shall reign with Him on|high!|
"^Refrain" [Ec][Fd] | [Ge]3 [Fd] [Ec]3 [GB] | [FA]2 [Ac]>[FA] [FA] [EG]3 | %11
w: |||
w: |||
w: |||
w: |||
 [Ec]2 [Ec]>[Ec] [Ec]2 [^FB][Fc] | [Fd]6 [Ec][Fd] | [Ge]3 [Fd] [Ec]3 [GB] | %14
w: |||
w: |||
w: |||
w: |||
 [FA]2 [Ac]>[FA] [FA] [EG]2 z | [Gc]2 [Gc][Ad] [Ge]2 [Fd]>[Ec] | [Ec]6 z2 |] %17
w: |||
w: |||
w: |||
w: |||
V:2
 [C,C]2 [C,C]2 [C,C][C,G,][C,G,][C,G,] | [C,G,]4 [C,C]4 | [F,C][F,C][F,A,][F,A,] [F,A,]2 [F,C]2 | %3
w: ~ ~ ~ ~ ~ ~|~ ~|~ ~ ~ ~ ~ ~|
 [C,C]6 z2 | [C,C]3 [C,G,] [C,G,][C,G,][C,G,][C,C] | [F,C]2 [F,C]4 z2 | %6
w: ~|~ ~ ~ ~ ~ ~|~ ~|
 [G,C][G,C][G,C][G,C] [G,B,]2 [G,,G,]2 | [C,G,]6 || [C,G,][G,B,] | C3 [G,B,] [C,G,]3 [E,C] | %10
w: ~ ~ ~ ~ ~ ~|~|’Tis a|glor- ious church with-|
 [F,C]2 [F,C]>[F,C] [C,C] [C,C]3 | [A,C]2 [A,C]>[A,C] [A,C]2 [D,A,][D,A,] | [G,B,]6 G,[G,B,] | %13
w: spot or wrink- le, Washed|in the blood of the Lamb;|’Tis a glor-|
 C3 [G,B,] [C,G,]3 [E,C] | [F,C]2 [F,C]>[F,C] [C,C] [C,C]2 z | %15
w: church with- out spot|wrink- le, Washed in the|
 [E,G,]2 [E,G,][F,C] [G,C]2 [G,,B,]>[C,G,] | [C,G,]6 z2 |] %17
w: blood of the Lamb. * *||
V:3
 x8 | x8 | x8 | x8 | x8 | x8 | x8 | x6 || x2 | C3 x5 | x8 | x8 | x6 G, x | C3 x5 | x8 | x8 | x8 |] %17
w: |||||||||out|||ious|or||||

